X: 50
T: Camp chase
B: canberra pickers and fiddlers
B: old time tunes update
B: tunes
M:4/4
L:1/8
Q: 1/4=100
K:A
V:1 
EF|:ABce a2 a2-|a2 af edcA|B2 Be b2 b2-|b2 ba fedB|c2 ce a2 a2-|
a2 af edcA|d2 d2 c2 c2|AB c/B/A BA F2|EFAF EDCD|EGBG AEFG:|
|:A2 c2 B2 Ac|BBAc BA F2|EFAF EDCD|EGBG AEFG:|
% abcbook-tune_id 67a7d9ecf0e831046e1f8285
% abcbook-tune_composer_id 
% abcbook-link-0 https://www.youtube.com/watch?v=j0ikv0C1NuY
% abcbook-link-title-0 Camp Chase
% abcbook-link-1 https://www.youtube.com/watch?v=ai52YryRXS8
% abcbook-link-title-1 &quot;Camp Chase&quot; a West Virginian Fiddle Tune
% abcbook-link-2 https://www.youtube.com/watch?v=L1mkXK8VIe8
% abcbook-link-title-2 Tyler Childers - Camp Chase (Audio)
% abcbook-boost 0
% abcbook-difficulty 0
% abcbook-tags old time tunes
% abcbook-tablature 
% abcbook-transpose 
% abcbook-tuning AEAE
% abcbook-lastupdated 1739148690386
% abcbook-src-url 
% abcbook-soundfonts 
% abcbook-repeats 1


